resources/img/scalable/actions/flypie-action-insert-text-symbolic.svg

<?xml version="1.0" encoding="UTF-8" standalone="no"?>
<svg
   xmlns:dc="http://purl.org/dc/elements/1.1/"
   xmlns:cc="http://creativecommons.org/ns#"
   xmlns:rdf="http://www.w3.org/1999/02/22-rdf-syntax-ns#"
   xmlns:svg="http://www.w3.org/2000/svg"
   xmlns="http://www.w3.org/2000/svg"
   xmlns:sodipodi="http://sodipodi.sourceforge.net/DTD/sodipodi-0.dtd"
   xmlns:inkscape="http://www.inkscape.org/namespaces/inkscape"
   width="4.235mm"
   height="4.2333mm"
   version="1.1"
   viewBox="0 0 4.235 4.2333"
   id="svg2255"
   sodipodi:docname="flypie-action-insert-text-symbolic.svg"
   inkscape:version="1.0.2 (e86c870879, 2021-01-15)">
  <defs
     id="defs2259" />
  <sodipodi:namedview
     pagecolor="#ffffff"
     bordercolor="#666666"
     borderopacity="1"
     objecttolerance="10"
     gridtolerance="10"
     guidetolerance="10"
     inkscape:pageopacity="0"
     inkscape:pageshadow="2"
     inkscape:window-width="1920"
     inkscape:window-height="1131"
     id="namedview2257"
     showgrid="false"
     inkscape:zoom="45.937859"
     inkscape:cx="8.0031499"
     inkscape:cy="7.9999374"
     inkscape:window-x="0"
     inkscape:window-y="32"
     inkscape:window-maximized="1"
     inkscape:current-layer="svg2255" />
  <metadata
     id="metadata2235">
    <rdf:RDF>
      <cc:Work
         rdf:about="">
        <dc:format>image/svg+xml</dc:format>
        <dc:type
           rdf:resource="http://purl.org/dc/dcmitype/StillImage" />
        <dc:title />
      </cc:Work>
    </rdf:RDF>
  </metadata>
  <path
     d="M 1.0546953,0.26166056 V 1.3199806 c 0,0.410681 0.081813,0.7378342 0.2382251,1.0174953 0.1053373,0.1883359 0.2381988,0.3519443 0.3930072,0.5179682 L 1.8626406,2.2448199 C 1.8213264,2.1891338 1.7852906,2.1343578 1.7543903,2.0791082 1.6423221,1.8787391 1.5838605,1.6652786 1.5838605,1.3200017 V 0.26168173 Z"
     color="#000000"
     fill="#241f31"
     id="path2239"
     style="stroke-width:0.26458;fill:#2e3436;fill-opacity:1" />
  <path
     d="M 2.440724,0.52608975 1.5890939,3.9656297 h 0.52916 l 0.2067032,-0.79374 h 1.1740737 l 0.2067031,0.79374 h 0.52916 L 3.3832638,0.52608975 Z M 2.8541303,1.0552497 H 2.969884 l 0.39687,1.58748 H 2.4572603 Z"
     color="#000000"
     id="path2243"
     style="fill:#2e3436;stroke-width:0.26458;fill-opacity:1" />
  <path
     d="M 1.059881,0.26166056 V 1.3199806 c 0,0.3453033 -0.058462,0.55874 -0.17052973,0.7591064 C 0.77728312,2.2794561 0.59770474,2.4735758 0.34365502,2.7276255 L 0.7177976,3.1017681 C 0.97731354,2.8422522 1.1949412,2.6171369 1.3513344,2.3374759 1.5077277,2.0578148 1.5890437,1.7306616 1.5890437,1.3199806 V 0.26166056 Z"
     color="#000000"
     id="path2245"
     style="fill:#2e3436;stroke-width:0.26458;fill-opacity:1" />
  <path
     d="m 0.26614102,1.0554085 v 0.52916 H 2.0026325 l 0.1356634,-0.52916 z"
     color="#000000"
     id="path2247"
     style="fill:#2e3436;stroke-width:0.26458;fill-opacity:1" />
</svg>

<svg xmlns="http://www.w3.org/2000/svg" width="16.006" height="16" viewBox="0 0 4.235 4.233"><path d="M1.055.262V1.32c0 .41.082.738.238 1.017.105.189.238.352.393.518l.177-.61a1.54 1.54 0 0 1-.109-.166c-.112-.2-.17-.414-.17-.759V.262Z" color="#000" fill="#241f31" style="stroke-width:.26458;fill:#2e3436;fill-opacity:1"/><path d="m2.44.526-.85 3.44h.528l.207-.794h1.174l.207.794h.529L3.383.526Zm.414.53h.116l.397 1.587h-.91ZM1.06.262V1.32c0 .345-.059.559-.17.76-.113.2-.292.394-.546.648l.374.374c.26-.26.477-.485.633-.765.157-.28.238-.606.238-1.017V.262Z" color="#000" style="fill:#2e3436;stroke-width:.26458;fill-opacity:1"/><path d="M.266 1.055v.53h1.737l.135-.53z" color="#000" style="fill:#2e3436;stroke-width:.26458;fill-opacity:1"/></svg>
